dist/assets/img/about/hand.svg

<svg width="87" height="98" viewBox="0 0 87 98" fill="none" xmlns="http://www.w3.org/2000/svg">
<path d="M81.4318 25.2232L76.5598 51.4876C76.3278 52.9918 77.2558 54.3802 78.7638 54.7273L84.6798 23.0248C83.1718 22.7934 81.7798 23.719 81.4318 25.2232Z" fill="#FBBF8D"/>
<path d="M84.6797 23.0249L78.7637 54.7274C80.2717 54.9588 81.6637 54.0332 82.0117 52.529L86.8837 26.2646C87.2317 24.7604 86.1877 23.2563 84.6797 23.0249Z" fill="#F0B07A"/>
<path d="M81.8958 25.686L81.5479 27.3059L83.7518 27.7687L84.4479 23.9505C83.2879 23.6034 82.1278 24.4133 81.8958 25.686Z" fill="#FBCFAB"/>
<path d="M86.3037 26.4959C86.5357 25.3388 85.7237 24.0661 84.5637 23.8347L83.8677 27.6529L86.0717 28.1157L86.3037 26.4959Z" fill="#FBBF8D"/>
<path d="M73.1963 13.1901L69.4843 46.0496C69.2523 47.9009 70.6443 49.6364 72.5003 49.8678L77.0243 10.2976C75.1683 9.95045 73.4283 11.3389 73.1963 13.1901Z" fill="#FBBF8D"/>
<path d="M77.024 10.1819L72.5 49.7521C74.356 49.9835 76.096 48.5951 76.328 46.7439L80.04 14.0001C80.272 12.1488 78.88 10.4133 77.024 10.1819Z" fill="#F0B07A"/>
<path d="M73.7764 13.6529L73.5444 15.7355L76.3284 16.0826L76.9084 11.3388C75.4004 11.1074 74.0084 12.1487 73.7764 13.6529Z" fill="#FBCFAB"/>
<path d="M79.3446 14.3471C79.5766 12.843 78.4166 11.4546 76.9086 11.3389L76.3286 16.0827L79.1126 16.4298L79.3446 14.3471Z" fill="#FBBF8D"/>
<path d="M58.6958 69.6528C58.6958 69.6528 60.7838 63.4048 60.5518 59.5866C60.3198 55.0743 59.9718 50.7933 55.9118 49.4048C56.0278 50.6776 56.0278 51.7189 56.1438 52.066C53.7078 50.099 51.7358 48.4792 51.7358 48.4792C51.7358 48.4792 49.2998 44.0825 48.7198 42.6941C46.6318 37.9503 42.1078 38.1817 41.1798 38.5288C39.6718 38.9916 40.8318 40.9585 40.8318 40.9585L46.2838 54.1486C48.1398 58.3139 57.6518 68.7271 58.6958 69.6528Z" fill="#FBBF8D"/>
<path d="M43.384 43.0413C43.268 40.9586 42.804 39.4545 40.368 39.8016H40.252C40.368 40.3801 40.6 40.9586 40.6 40.9586L42.688 46.0496C43.268 45.1239 43.5 44.1983 43.384 43.0413Z" fill="#FBCFAB"/>
<path d="M61.9438 7.28921V45.3553C61.9438 47.2066 63.4518 48.7107 65.3078 48.7107V3.93384C63.5678 3.93384 61.9438 5.43797 61.9438 7.28921Z" fill="#FBBF8D"/>
<path d="M65.4238 3.93384V48.8264C67.2798 48.8264 68.7878 47.3223 68.7878 45.471V7.28921C68.7878 5.43797 67.2798 3.93384 65.4238 3.93384Z" fill="#F0B07A"/>
<path d="M62.6396 7.63625V9.7189H65.4237V4.9751C63.9157 4.9751 62.6396 6.13212 62.6396 7.63625Z" fill="#FBCFAB"/>
<path d="M68.2078 7.63623C68.2078 6.1321 66.9318 4.85938 65.4238 4.85938V9.71888H68.2078V7.63623Z" fill="#FBBF8D"/>
<path d="M50.9242 14.9258L55.4482 52.5292C55.6802 54.3804 56.8402 50.9093 58.6962 50.6779L53.9402 11.1077C52.0842 11.3391 50.6922 13.0746 50.9242 14.9258Z" fill="#FBBF8D"/>
<path d="M53.9404 11.1074L58.6964 50.6776C60.5524 50.4462 61.9444 48.7107 61.7124 46.8595L57.7684 14C57.5364 12.2644 55.7964 10.9917 53.9404 11.1074Z" fill="#F0B07A"/>
<path d="M51.6201 15.2727L51.8521 17.3553L54.6361 17.0082L54.0561 12.2644C52.5481 12.3801 51.5041 13.7685 51.6201 15.2727Z" fill="#FBCFAB"/>
<path d="M54.0562 12.1487L54.6362 16.8925L57.4202 16.5454L57.1882 14.4627C56.9562 13.0743 55.5642 12.033 54.0562 12.1487Z" fill="#FBBF8D"/>
<path d="M69.1358 64.7935H58.6958V98.0001H69.1358V64.7935Z" fill="#FBBF8D"/>
<path d="M80.6197 64.7935H69.1357V98.0001H80.6197V64.7935Z" fill="#F0B07A"/>
<path d="M66.6999 41.6528C60.6679 41.6528 55.7959 46.5123 55.7959 52.5289V62.1322C55.7959 65.4875 57.3039 68.3801 59.6239 70.347H69.3679V41.6528H66.6999Z" fill="#FBBF8D"/>
<path d="M66.7 41.6528C63.684 41.6528 59.74 43.157 58 46.0495L58.232 47.2065C60.204 45.2396 63.684 43.7355 66.7 43.7355H69.368V41.6528H66.7Z" fill="#F0B07A"/>
<path d="M72.1522 41.6528H69.3682V70.347H80.0402C81.4322 68.4958 82.9402 66.1818 82.9402 63.752V52.2975C83.0562 46.5123 78.1842 41.6528 72.1522 41.6528Z" fill="#F0B07A"/>
<path d="M8.70004 43.5041H7.54004V9.3719C7.54004 4.16529 11.716 0 16.936 0H68.208C73.428 0 77.604 4.16529 77.604 9.3719L76.328 20.595L75.168 20.4793L76.328 9.3719C76.328 4.8595 72.616 1.27273 68.092 1.27273H16.936C12.412 1.27273 8.70004 4.97521 8.70004 9.4876V43.5041Z" fill="#0055A6"/>
<path d="M27.3758 48.3635H26.2158V14.2313C26.2158 9.02466 30.3918 4.85938 35.6118 4.85938H45.4718C50.8078 4.85938 54.5198 8.56185 54.8678 14.2313C54.9838 15.7354 55.6798 20.2478 55.6798 20.3635L54.5198 20.4792C54.5198 20.2478 53.8238 15.8511 53.7078 14.2313C53.3598 9.25607 50.1118 6.0164 45.4718 6.0164H35.6118C31.0878 6.0164 27.3758 9.71888 27.3758 14.2313V48.3635Z" fill="#0055A6"/>
<path d="M76.676 29.967L77.836 18.9753L75.98 18.7439L74.936 29.7356L76.676 29.967Z" fill="#0069CC"/>
<path d="M75.9802 18.7439L74.0082 18.5125L72.6162 29.5042L74.9362 29.7356L75.9802 18.7439Z" fill="#0055A6"/>
<path d="M75.6322 22.6777L71.9202 22.2148L70.9922 30.6611L74.5882 31.1239L75.6322 22.6777Z" fill="#0069CC"/>
<path d="M78.3004 31.4711L79.3444 23.1405L75.6324 22.6777L74.5884 31.124L78.3004 31.4711Z" fill="#0055A6"/>
<path d="M58.1162 29.8514L56.7242 18.8596L54.8682 19.091L56.2602 30.0828L58.1162 29.8514Z" fill="#0069CC"/>
<path d="M54.868 19.0911L52.896 19.3225L53.94 30.3142L56.26 30.0828L54.868 19.0911Z" fill="#0055A6"/>
<path d="M55.3321 23.0249L51.6201 23.372L52.6641 31.8183L56.3761 31.3555L55.3321 23.0249Z" fill="#0069CC"/>
<path d="M59.972 30.8926L59.16 22.562L55.332 23.0248L56.376 31.3554L59.972 30.8926Z" fill="#0055A6"/>
<path d="M31.5522 41.1902H26.6802V46.6282H31.5522V41.1902Z" fill="#0069CC"/>
<path d="M26.6802 41.1902H22.3882V46.6282H26.6802V41.1902Z" fill="#0095EB"/>
<path d="M13.1078 41.1902H8.23584V46.6282H13.1078V41.1902Z" fill="#0069CC"/>
<path d="M8.23585 41.1902H3.94385V46.6282H8.23585V41.1902Z" fill="#0095EB"/>
<path d="M18.676 44.5454H0V68.1487H18.676V44.5454Z" fill="#0069CC"/>
<path d="M37.3518 44.5454H18.6758V68.1487H37.3518V44.5454Z" fill="#0055A6"/>
<path d="M36.3079 45.8181H1.27588V66.9917H36.3079V45.8181Z" fill="#0095EB"/>
<path d="M31.7841 47.438H28.7681V65.3719H31.7841V47.438Z" fill="#57C2FF"/>
<path d="M34.8002 47.438H31.7842V65.3719H34.8002V47.438Z" fill="#36B6FF"/>
<path d="M27.7239 47.438H15.5439V65.3719H27.7239V47.438Z" fill="#0069CC"/>
<path d="M15.6599 47.438H2.8999V65.3719H15.6599V47.438Z" fill="#0055A6"/>
<path d="M27.0279 48.0166H15.5439V64.6778H27.0279V48.0166Z" fill="#E8E8E8"/>
<path d="M15.5442 48.0166H3.59619V64.6778H15.5442V48.0166Z" fill="white"/>
<path d="M27.0281 56.5784H21.2281L20.7641 57.1569L19.7201 55.1899L18.9081 57.8511L17.7481 53.4544L15.0801 61.3222L12.5281 49.6362L10.0921 57.6197L9.62812 56.6941H3.82812V57.2726H9.28012L10.0921 59.4709L12.4121 51.9503L14.9641 63.5205L17.6321 55.5371L18.7921 59.9337L19.8361 57.0412L20.4161 58.5453L21.3441 57.3883H27.0281V56.5784Z" fill="#FF4140"/>
<path d="M29.4639 61.9007C29.4639 63.1734 30.5079 64.2148 31.7839 64.2148V59.5867C30.5079 59.5867 29.4639 60.628 29.4639 61.9007Z" fill="#0055A6"/>
<path d="M31.7837 59.5867V64.2148C33.0597 64.2148 34.1037 63.1734 34.1037 61.9007C34.1037 60.628 33.0597 59.5867 31.7837 59.5867Z" fill="#0069CC"/>
<path d="M29.9277 61.9008C29.9277 62.9422 30.7397 63.8678 31.8997 63.8678V60.0496C30.7397 59.9339 29.9277 60.8595 29.9277 61.9008Z" fill="#0069CC"/>
<path d="M31.7837 59.9338V63.752C32.8277 63.752 33.7557 62.9421 33.7557 61.7851C33.7557 60.8595 32.8277 59.9338 31.7837 59.9338Z" fill="#0055A6"/>
<path d="M2.55202 66.0661C2.55202 65.8347 2.32002 65.6033 2.08802 65.6033C1.85602 65.6033 1.62402 65.8347 1.62402 66.0661C1.62402 66.2975 1.85602 66.5289 2.08802 66.5289C2.32002 66.5289 2.55202 66.4132 2.55202 66.0661Z" fill="#0055A6"/>
<path d="M2.55202 46.6281C2.55202 46.3967 2.32002 46.1653 2.08802 46.1653C1.85602 46.1653 1.62402 46.3967 1.62402 46.6281C1.62402 46.8595 1.85602 47.0909 2.08802 47.0909C2.32002 47.0909 2.55202 46.8595 2.55202 46.6281Z" fill="#0055A6"/>
<path d="M35.844 66.0661C35.844 65.8347 35.612 65.6033 35.38 65.6033C35.148 65.6033 34.916 65.8347 34.916 66.0661C34.916 66.2975 35.148 66.5289 35.38 66.5289C35.612 66.5289 35.844 66.4132 35.844 66.0661Z" fill="#0055A6"/>
<path d="M35.844 46.6281C35.844 46.3967 35.612 46.1653 35.38 46.1653C35.148 46.1653 34.916 46.3967 34.916 46.6281C34.916 46.8595 35.148 47.0909 35.38 47.0909C35.612 47.0909 35.844 46.8595 35.844 46.6281Z" fill="#0055A6"/>
<path d="M29.1162 47.9008L29.4642 47.6694L29.6962 47.9008V48.1322L29.4642 48.2479L29.1162 48.1322V47.9008Z" fill="#0055A6"/>
<path d="M33.9883 47.9008L34.2203 47.6694L34.4523 47.9008V48.1322L34.2203 48.2479L33.9883 48.1322V47.9008Z" fill="#0055A6"/>
<path d="M29.1162 64.562L29.4642 64.4463L29.6962 64.562V64.9091L29.4642 65.0248L29.1162 64.9091V64.562Z" fill="#0055A6"/>
<path d="M33.9883 64.562L34.2203 64.4463L34.4523 64.562V64.9091L34.2203 65.0248L33.9883 64.9091V64.562Z" fill="#0055A6"/>
<path d="M34.2201 50.4463H29.3481V51.8347H34.2201V50.4463Z" fill="#0069CC"/>
<path d="M34.2201 49.0579H29.3481V50.4463H34.2201V49.0579Z" fill="#0055A6"/>
<path d="M33.9883 50.4463H29.6963V51.6033H33.9883V50.4463Z" fill="#0055A6"/>
<path d="M33.9883 49.405H29.6963V50.5621H33.9883V49.405Z" fill="#0069CC"/>
<path d="M34.2201 53.9172H29.3481V55.3057H34.2201V53.9172Z" fill="#0069CC"/>
<path d="M34.2201 52.5288H29.3481V53.9172H34.2201V52.5288Z" fill="#0055A6"/>
<path d="M33.9883 53.9172H29.6963V55.0743H33.9883V53.9172Z" fill="#0055A6"/>
<path d="M33.9883 52.876H29.6963V54.033H33.9883V52.876Z" fill="#0069CC"/>
<path d="M34.2201 57.3884H29.3481V58.7769H34.2201V57.3884Z" fill="#0069CC"/>
<path d="M34.2201 56H29.3481V57.3884H34.2201V56Z" fill="#0055A6"/>
<path d="M33.9883 57.3884H29.6963V58.5455H33.9883V57.3884Z" fill="#0055A6"/>
<path d="M33.9883 56.3472H29.6963V57.5042H33.9883V56.3472Z" fill="#0069CC"/>
</svg>

<svg width="87" height="98" fill="none" xmlns="http://www.w3.org/2000/svg"><path d="M81.432 25.223L76.56 51.488c-.232 1.504.696 2.892 2.204 3.24l5.916-31.703c-1.508-.232-2.9.694-3.248 2.198z" fill="#FBBF8D"/><path d="M84.68 23.025l-5.916 31.702c1.508.232 2.9-.694 3.248-2.198l4.872-26.264c.348-1.505-.696-3.009-2.204-3.24z" fill="#F0B07A"/><path d="M81.896 25.686l-.348 1.62 2.204.463.696-3.818c-1.16-.348-2.32.462-2.552 1.735z" fill="#FBCFAB"/><path d="M86.304 26.496c.232-1.157-.58-2.43-1.74-2.661l-.696 3.818 2.204.463.232-1.62zM73.196 13.19l-3.712 32.86c-.232 1.85 1.16 3.586 3.016 3.818l4.524-39.57c-1.856-.348-3.596 1.04-3.828 2.892z" fill="#FBBF8D"/><path d="M77.024 10.182L72.5 49.752c1.856.231 3.596-1.157 3.828-3.008L80.04 14c.232-1.851-1.16-3.587-3.016-3.818z" fill="#F0B07A"/><path d="M73.776 13.653l-.232 2.082 2.784.348.58-4.744a2.75 2.75 0 00-3.132 2.314z" fill="#FBCFAB"/><path d="M79.345 14.347c.232-1.504-.928-2.892-2.436-3.008l-.58 4.744 2.784.347.232-2.083zM58.696 69.653s2.088-6.248 1.856-10.066c-.232-4.513-.58-8.794-4.64-10.182.116 1.273.116 2.314.232 2.661-2.436-1.967-4.408-3.587-4.408-3.587s-2.436-4.396-3.016-5.785c-2.088-4.744-6.612-4.512-7.54-4.165-1.508.463-.348 2.43-.348 2.43l5.452 13.19c1.856 4.165 11.368 14.578 12.412 15.504z" fill="#FBBF8D"/><path d="M43.384 43.041c-.116-2.082-.58-3.586-3.016-3.24h-.116c.116.58.348 1.158.348 1.158l2.088 5.09c.58-.925.812-1.85.696-3.008z" fill="#FBCFAB"/><path d="M61.944 7.29v38.065a3.362 3.362 0 003.364 3.356V3.934c-1.74 0-3.364 1.504-3.364 3.355z" fill="#FBBF8D"/><path d="M65.424 3.934v44.892a3.362 3.362 0 003.364-3.355V7.289a3.362 3.362 0 00-3.364-3.355z" fill="#F0B07A"/><path d="M62.64 7.636V9.72h2.784V4.975c-1.508 0-2.784 1.157-2.784 2.661z" fill="#FBCFAB"/><path d="M68.208 7.636c0-1.504-1.276-2.777-2.784-2.777v4.86h2.784V7.636zm-17.284 7.29l4.524 37.603c.232 1.851 1.392-1.62 3.248-1.851l-4.756-39.57c-1.856.231-3.248 1.967-3.016 3.818z" fill="#FBBF8D"/><path d="M53.94 11.107l4.756 39.57c1.856-.23 3.248-1.966 3.016-3.818L57.768 14c-.232-1.736-1.972-3.008-3.828-2.893z" fill="#F0B07A"/><path d="M51.62 15.273l.232 2.082 2.784-.347-.58-4.744c-1.508.116-2.552 1.505-2.436 3.009z" fill="#FBCFAB"/><path d="M54.056 12.149l.58 4.743 2.784-.347-.232-2.082c-.232-1.389-1.624-2.43-3.132-2.314zm15.08 52.644h-10.44V98h10.44V64.793z" fill="#FBBF8D"/><path d="M80.62 64.793H69.136V98H80.62V64.793z" fill="#F0B07A"/><path d="M66.7 41.653c-6.032 0-10.904 4.86-10.904 10.876v9.603c0 3.355 1.508 6.248 3.828 8.215h9.744V41.653H66.7z" fill="#FBBF8D"/><path d="M66.7 41.653c-3.016 0-6.96 1.504-8.7 4.397l.232 1.157c1.972-1.967 5.452-3.471 8.468-3.471h2.668v-2.083H66.7z" fill="#F0B07A"/><path d="M72.152 41.653h-2.784v28.694H80.04c1.392-1.851 2.9-4.165 2.9-6.595V52.297c.116-5.785-4.756-10.644-10.788-10.644z" fill="#F0B07A"/><path d="M8.7 43.504H7.54V9.372C7.54 4.165 11.716 0 16.936 0h51.272c5.22 0 9.396 4.165 9.396 9.372l-1.276 11.223-1.16-.116 1.16-11.107c0-4.513-3.712-8.1-8.236-8.1H16.936c-4.524 0-8.236 3.703-8.236 8.216v34.016z" fill="#0055A6"/><path d="M27.376 48.364h-1.16V14.23c0-5.206 4.176-9.372 9.396-9.372h9.86c5.336 0 9.048 3.703 9.396 9.372.116 1.504.812 6.017.812 6.132l-1.16.116c0-.231-.696-4.628-.812-6.248-.348-4.975-3.596-8.215-8.236-8.215h-9.86c-4.524 0-8.236 3.703-8.236 8.215v34.133z" fill="#0055A6"/><path d="M76.676 29.967l1.16-10.992-1.856-.231-1.044 10.992 1.74.231z" fill="#0069CC"/><path d="M75.98 18.744l-1.972-.232-1.392 10.992 2.32.232 1.044-10.992z" fill="#0055A6"/><path d="M75.632 22.678l-3.712-.463-.928 8.446 3.596.463 1.044-8.446z" fill="#0069CC"/><path d="M78.3 31.471l1.044-8.33-3.712-.463-1.044 8.446 3.712.347z" fill="#0055A6"/><path d="M58.116 29.851L56.724 18.86l-1.856.231 1.392 10.992 1.856-.232z" fill="#0069CC"/><path d="M54.868 19.091l-1.972.232 1.044 10.991 2.32-.231-1.392-10.992z" fill="#0055A6"/><path d="M55.332 23.025l-3.712.347 1.044 8.446 3.712-.463-1.044-8.33z" fill="#0069CC"/><path d="M59.972 30.893l-.812-8.331-3.828.463 1.044 8.33 3.596-.462z" fill="#0055A6"/><path d="M31.552 41.19H26.68v5.438h4.872V41.19z" fill="#0069CC"/><path d="M26.68 41.19h-4.292v5.438h4.292V41.19z" fill="#0095EB"/><path d="M13.108 41.19H8.236v5.438h4.872V41.19z" fill="#0069CC"/><path d="M8.236 41.19H3.944v5.438h4.292V41.19z" fill="#0095EB"/><path d="M18.676 44.545H0V68.15h18.676V44.545z" fill="#0069CC"/><path d="M37.352 44.545H18.676V68.15h18.676V44.545z" fill="#0055A6"/><path d="M36.308 45.818H1.276v21.174h35.032V45.818z" fill="#0095EB"/><path d="M31.784 47.438h-3.016v17.934h3.016V47.438z" fill="#57C2FF"/><path d="M34.8 47.438h-3.016v17.934H34.8V47.438z" fill="#36B6FF"/><path d="M27.724 47.438h-12.18v17.934h12.18V47.438z" fill="#0069CC"/><path d="M15.66 47.438H2.9v17.934h12.76V47.438z" fill="#0055A6"/><path d="M27.028 48.017H15.544v16.66h11.484v-16.66z" fill="#E8E8E8"/><path d="M15.544 48.017H3.596v16.66h11.948v-16.66z" fill="#fff"/><path d="M27.028 56.578h-5.8l-.464.579-1.044-1.967-.812 2.661-1.16-4.397-2.668 7.868-2.552-11.686-2.436 7.984-.464-.926h-5.8v.579H9.28l.812 2.198 2.32-7.52 2.552 11.57 2.668-7.984 1.16 4.397 1.044-2.893.58 1.504.928-1.157h5.684v-.81z" fill="#FF4140"/><path d="M29.464 61.9a2.324 2.324 0 002.32 2.315v-4.628a2.324 2.324 0 00-2.32 2.314z" fill="#0055A6"/><path d="M31.784 59.587v4.628a2.324 2.324 0 002.32-2.314 2.324 2.324 0 00-2.32-2.314z" fill="#0069CC"/><path d="M29.928 61.9c0 1.042.812 1.968 1.972 1.968V60.05c-1.16-.116-1.972.81-1.972 1.85z" fill="#0069CC"/><path d="M31.784 59.934v3.818c1.044 0 1.972-.81 1.972-1.967 0-.925-.928-1.851-1.972-1.851zM2.552 66.066c0-.231-.232-.463-.464-.463s-.464.232-.464.463.232.463.464.463.464-.116.464-.463zm0-19.438c0-.231-.232-.463-.464-.463s-.464.232-.464.463.232.463.464.463.464-.232.464-.463zm33.292 19.438c0-.231-.232-.463-.464-.463s-.464.232-.464.463.232.463.464.463.464-.116.464-.463zm0-19.438c0-.231-.232-.463-.464-.463s-.464.232-.464.463.232.463.464.463.464-.232.464-.463zM29.116 47.9l.348-.23.232.23v.232l-.232.116-.348-.116v-.231zm4.872 0l.232-.23.232.23v.232l-.232.116-.232-.116v-.231zm-4.872 16.662l.348-.116.232.116v.347l-.232.116-.348-.116v-.347zm4.872 0l.232-.116.232.116v.347l-.232.116-.232-.116v-.347z" fill="#0055A6"/><path d="M34.22 50.446h-4.872v1.389h4.872v-1.389z" fill="#0069CC"/><path d="M34.22 49.058h-4.872v1.388h4.872v-1.388zm-.232 1.388h-4.292v1.157h4.292v-1.157z" fill="#0055A6"/><path d="M33.988 49.405h-4.292v1.157h4.292v-1.157zm.232 4.512h-4.872v1.389h4.872v-1.389z" fill="#0069CC"/><path d="M34.22 52.529h-4.872v1.388h4.872V52.53zm-.232 1.388h-4.292v1.157h4.292v-1.157z" fill="#0055A6"/><path d="M33.988 52.876h-4.292v1.157h4.292v-1.157zm.232 4.512h-4.872v1.389h4.872v-1.389z" fill="#0069CC"/><path d="M34.22 56h-4.872v1.388h4.872V56zm-.232 1.388h-4.292v1.157h4.292v-1.157z" fill="#0055A6"/><path d="M33.988 56.347h-4.292v1.157h4.292v-1.157z" fill="#0069CC"/></svg>
